X:132
T:Maggie's Melange
S:American Veteran Fifer #132
C:By A.F. Hopkins, Fife Major N.A. of C.W.M. 1905.
M:2/4
L:1/16
Q:1/8=180
K:D 
%%MIDI program 72
%%MIDI transpose 8
%%MIDI ratio 3 1
((3ABc) | d2(fa) d2(fa) | d2(fa) bafa | d2(fa) gece | d2fd edcB |
Ad(fa) d2(fa) | d2(fa) bafa | d2(fa) gece | d2f2d2 :|
|: ((3ABc) | e2e2- efed | fe2f edcB | Acef gagf | ag2a gfef |
geab a2aa | ba2b agef | geaf gaed | cA2B A2 :|



